X: 80
T:Kurdilihijazkar Saz Semaisi (intro and refrain)
N:next section is in saba makam, not representable in ABC
C:Tatyos Efendi
N:there are many versions of this on YouTube
M:10/8
L:1/16
Q:5/8=44
K:DPhr
D4  d2 dedc BABc  d4  z2|d2e2g2 f3e  d3c     cBBA B2 |
F3B Ac B3d  cBce  d2c2B2|B3g fe d3c  BABc    d4   z2||
e2d2c2 B3A  GFGA  B4  z2|A2B2d2 c3A  BABG    A4   z2 |
D4  B2 A3G  G>BAG G4  z2|FGABAG FAGF FEED [1 FGABcd :|\
                                          [2 D4   z2|]

This is a folk hymn from Hungary, originally a folk song in
a different mode, but perhaps modified under the influence
of Catholic chant:

